X:1
T:Buff the Blanket
M:6/8
L:1/8
R:Air
B:Smollet Holden - Collection of favourite Irish Airs (London, c. 1841; p. 30)
Z:AK/Fiddler’s Companion
K:G
GAG GBG|GBG e3|def gab|c'ag fed|
GAG dBG|gdB e3|def gfe|ded dBG:|
|:ded dfd|dfd b3|ab^c d'c'b|aba fed|
ded afd|ded e3|def gfe|ded dBG:|
|:G2g B2g|G2g e3|def gab|c'ag fed|
g3e3|dBG !fermata!e3|def gfe|ded dBG:|]

